assets/images/star.svg

<svg width="24" height="24" viewBox="0 0 24 24" fill="none" xmlns="http://www.w3.org/2000/svg">
<path d="M13.7299 3.51014L15.4899 7.03014C15.7299 7.52014 16.3699 7.99014 16.9099 8.08014L20.0999 8.61014C22.1399 8.95014 22.6199 10.4301 21.1499 11.8901L18.6699 14.3701C18.2499 14.7901 18.0199 15.6001 18.1499 16.1801L18.8599 19.2501C19.4199 21.6801 18.1299 22.6201 15.9799 21.3501L12.9899 19.5801C12.4499 19.2601 11.5599 19.2601 11.0099 19.5801L8.01991 21.3501C5.87991 22.6201 4.57991 21.6701 5.13991 19.2501L5.84991 16.1801C5.97991 15.6001 5.74991 14.7901 5.32991 14.3701L2.84991 11.8901C1.38991 10.4301 1.85991 8.95014 3.89991 8.61014L7.08991 8.08014C7.61991 7.99014 8.25991 7.52014 8.49991 7.03014L10.2599 3.51014C11.2199 1.60014 12.7799 1.60014 13.7299 3.51014Z" fill="#F6B53D"/>
</svg>

<svg width="24" height="24" fill="none" xmlns="http://www.w3.org/2000/svg"><path d="m13.73 3.51 1.76 3.52c.24.49.88.96 1.42 1.05l3.19.53c2.04.34 2.52 1.82 1.05 3.28l-2.48 2.48c-.42.42-.65 1.23-.52 1.81l.71 3.07c.56 2.43-.73 3.37-2.88 2.1l-2.99-1.77c-.54-.32-1.43-.32-1.98 0l-2.99 1.77c-2.14 1.27-3.44.32-2.88-2.1l.71-3.07c.13-.58-.1-1.39-.52-1.81l-2.48-2.48c-1.46-1.46-.99-2.94 1.05-3.28l3.19-.53c.53-.09 1.17-.56 1.41-1.05l1.76-3.52c.96-1.91 2.52-1.91 3.47 0Z" fill="#F6B53D"/></svg>
